X:1
T:Come lasicar
T:Come lasicar
T:Gio.Girolamo Kapsperger
C:Gio.Girolamo Kapsperger
%%score 1 { ( 2 4 ) | 3 }
L:1/8
Q:1/4=120
M:4/4
K:F
V:1 treble nm="Soprano" snm="S"
V:2 treble nm="BC" snm="BC"
V:4 treble 
V:3 bass 
V:1
 c2 cc B2 A2 |[M:3/4] G4 G2 | B2 B2 A2 | B2 B2 A2 | F4 E2 | F4 F2 | A2 B2 c2 | d2 D2 F2 | F4 E2 | %9
w: Co- me la- sciar mi|puo- i,|s'io so- noi|se- gno De-|i pian-|ti tuo-|i, s'io so-|noi se- gno|De- i|
w: |||||||||
 F4 !fermata!F2 |:[M:4/4] z ccc B2 A2!fine! | A2 G4 AA | A4 GBBB | A3 A A3 ^F | G3 G G2 ^F2 | %15
w: tuo- i.|Me- lo- giu- ra- vi|pur' em- pio'in- fe-|de- le, e pro- vo|ca- v'in te- sti-|mo- ni- o'A- mo-|
w: |Me- lo giu- ra- vi|pur cru- do'e spie-|ta- to, e sfa- vil-|la- va'in dir pie-|to- so'il guar- *|
 G4 z Bcd | B3 D E4 | D4 z2 AA | B2 B2 z GGF | A4 A3 A | A>A Bc d2 F2- | F2 FG G4 | F2 z c d2 dA | %23
w: re, la- sciar- mi|pur cru- de-|le, ma voi|sag- gie al- le mi|pe- ne, tron-|ca- te'o- mai d'a- mor l'a-|* spre ca- te-|ne, le- ge te- lo'in|
w: do, vat- te- ne|pur in- gra-|to, ma voi|sag- gie a miei mar-|ti- ri, le-|va- te'o- mai- dal cor pian-|* ti'e so- spi-|ri, cre- de- te- lo'a-|
 Bccd d2 cB | B3 A G4 | d2 dd c3 B | A2 A2 A3 B | c E2 E ^F3 F | G3 A A4- | %29
w: me qual poi sven- dei- no- a-|mor mer- ce,|ben- mell' in- gra- ti'a-|man- ti, fin- to'el|cor, fin- t'i- ri- si'e|fin- t'i pian-|
w: me che non si tro- va'in a-|mor piu fe,-|ben nell' in- gra- ti'a-|man- ti, fin- to'el|cor, fin- t'i- ri- si'e|fin- t'i pian-|
"^Come lasciar" A2 ^G2 !fermata!A4!D.C.! :| %30
w: * * ti.|
w: * * ti.|
V:2
 [FAc]4 [DB]2 [Ec]2 |[M:3/4] [EGc]6 | [DB]4 [^FA]2 | [GB]4 [Ec]2 | B2 c4 | [FA]6 | %6
 [Ac]2 [GB]2 [_Ec]2 | [DF]4 [CF]2 | B2 c4 | !fermata![FAc]6 |:[M:4/4] [Gc_e]4 [DB]4 | A4 c4 | %12
 [^FA]4 [DBd]2 [DB]2 | x8 | _e4 d4 | [DG=B]4 [D_B]4 | B4 c4 | [^FA]8 | [DB]4 [EG]4 | [Ac]8 | %20
 [Fc]2 [GB]2 [Fd]4 | A2 d2 c4 | [FAc]4 [FB]2 [^FA]2 | [DB]2 [Ac]2 [GB]4 | [G_e]2 [^FA]2 [D=B]4 | %25
 [DG]2 [DF]2 [EG]4 | [Fd]4 [Ac]2 [F=B]2 | [Ec]4 [^FA]4 | [GB]4 [FAd]4 | %29
"^Come lasciar" e4 !fermata!^c4 :| %30
V:3
 F,,4 G,,2 A,,2 |[M:3/4] C,4 C,2 | G,,4 D,2 | G,,4 A,,2 | B,,2 [C,G,]4 | D,4 D,2 | F,2 _E,D, C,2 | %7
 B,,4 A,,2 | B,,2 [C,G,]4 | !fermata!F,,6 |:[M:4/4] C,4 G,,4 | D,4 C,4 | D,4 G,,2 G,2 | F,4 _E,4 | %14
 C,4 [D,A,]4 | G,,8 | G,,2 B,,2 A,,4 | D,8 | G,,4 C,4 | F,,6 F,2 | F,_E,D,C, B,,4 | D,4 [C,G,]4 | %22
 F,,2 F,2 B,,2 D,2 | G,,2 F,2 _E,4 | C,2 D,2 G,,4 | G,,2 B,,2 C,4 | D,4 F,2 D,2 | C,4 D,4 | %28
 E,4 D,4 | [E,B,]4 !fermata!A,,4 :| %30
V:4
 x8 |[M:3/4] x6 | x6 | x6 | F4 E2 | x6 | x6 | x6 | D2 F2 E2 | x6 |:[M:4/4] x8 | ^F2 G4 E2 | x8 | %13
 [Ac]4 [GB]4 | G6 ^F2 | x8 | G2 F2 E4 | x8 | x8 | x8 | x8 | F2 G2 F2 E2 | x8 | x8 | x8 | x8 | x8 | %27
 x8 | x8 | A2 ^G2 [EA]4 :| %30

